X: 20178
T: Jock Brown's 70th
R: reel
M: 4/4
K: Amixolydian
cd|:e2ee efed|cAA/A/A eAce|f/g/g3 gfga|e/f/f3 fefg|
aeed e3d|cAA/A/A eAcA|GAA/A/A cddA|GAde d2cd:|
|:a2cd ecde|cdac decd|a2cd ecde|cdac dggg|
a2cd ecde|cdac decA|GAA/A/A cddA|1 GAde d2cd:|2 GAde d2dc||
|:AAGA AGAA|GAAG AAdc|AAGA AGAA|GAde d2dc|
AAGA AGAA|GAAG AAdA|GAde d2dA|dcde d2dc:|

